public/icons/hot-air-balloon.svg

<svg fill="none" height="200" viewBox="0 0 200 200" width="200" xmlns="http://www.w3.org/2000/svg" xmlns:xlink="http://www.w3.org/1999/xlink"><linearGradient id="a"><stop offset="0" stop-color="#4f4a72"/><stop offset="1" stop-color="#3b395f"/></linearGradient><linearGradient id="b" gradientUnits="userSpaceOnUse" x1="81.3878" x2="118.612" xlink:href="#a" y1="165.517" y2="165.517"/><linearGradient id="c"><stop offset="0" stop-color="#a34a9e"/><stop offset=".1962" stop-color="#a04d90"/><stop offset=".5665" stop-color="#97566b"/><stop offset="1" stop-color="#8c6239"/></linearGradient><linearGradient id="d" gradientUnits="userSpaceOnUse" x1="99.7396" x2="103.233" xlink:href="#c" y1="169.937" y2="199.978"/><linearGradient id="e"><stop offset="0" stop-color="#3b395f" stop-opacity="0"/><stop offset="1" stop-color="#3b395f"/></linearGradient><linearGradient id="f" gradientUnits="userSpaceOnUse" x1="100.216" x2="101.073" xlink:href="#e" y1="194.984" y2="208.191"/><linearGradient id="g" gradientUnits="userSpaceOnUse" x1="100.223" x2="101.115" xlink:href="#e" y1="186.762" y2="200.488"/><linearGradient id="h" gradientUnits="userSpaceOnUse" x1="100.222" x2="101.124" xlink:href="#e" y1="178.418" y2="192.3"/><linearGradient id="i" gradientUnits="userSpaceOnUse" x1="97.2655" x2="116.002" xlink:href="#e" y1="174.041" y2="233.336"/><linearGradient id="j" gradientUnits="userSpaceOnUse" x1="97.1996" x2="113.323" xlink:href="#e" y1="176.006" y2="227.029"/><linearGradient id="k" gradientUnits="userSpaceOnUse" x1="102.36" x2="94.6549" xlink:href="#e" y1="183.118" y2="148.171"/><linearGradient id="l" gradientUnits="userSpaceOnUse" x1="99.2792" x2="100.692" xlink:href="#c" y1="164.233" y2="176.385"/><linearGradient id="m" gradientUnits="userSpaceOnUse" x1="82.9423" x2="117.058" xlink:href="#a" y1="154.788" y2="154.788"/><linearGradient id="n" gradientUnits="userSpaceOnUse" x1="30.6506" x2="169.349" y1="82.6253" y2="82.6253"><stop offset="0" stop-color="#3fa9f5"/><stop offset="1" stop-color="#666ad6"/></linearGradient><linearGradient id="o" gradientUnits="userSpaceOnUse" x1="47.9722" x2="152.028" y1="79.8173" y2="79.8173"><stop offset="0" stop-color="#c4f8b6"/><stop offset="1" stop-color="#3b8eac"/></linearGradient><linearGradient id="p" gradientUnits="userSpaceOnUse" x1="67.5969" x2="132.404" y1="78.3076" y2="78.3076"><stop offset="0" stop-color="#ffe548"/><stop offset=".1758" stop-color="#ffde50"/><stop offset=".4446" stop-color="#ffca65"/><stop offset=".7709" stop-color="#ffaa87"/><stop offset="1" stop-color="#ff90a4"/></linearGradient><linearGradient id="q" gradientUnits="userSpaceOnUse" x1="86.3455" x2="113.655" y1="76.8714" y2="76.8714"><stop offset="0" stop-color="#ff4974"/><stop offset=".2231" stop-color="#fb3f6c"/><stop offset=".6075" stop-color="#f12357"/><stop offset="1" stop-color="#e4003d"/></linearGradient><linearGradient id="r" gradientUnits="userSpaceOnUse" x1="98.8709" x2="102.853" xlink:href="#a" y1="141.892" y2="156.075"/><clipPath id="s"><path d="m0 0h200v200h-200z"/></clipPath><g clip-path="url(#s)"><path d="m118.612 171.628h-37.2242v-5.918c0-3.477 2.8283-6.305 6.3043-6.305h24.6149c3.477 0 6.305 2.828 6.305 6.305zm-34.8344-2.39h32.4444v-3.528c0-2.159-1.756-3.915-3.915-3.915h-24.6149c-2.1584 0-3.9145 1.756-3.9145 3.915z" fill="url(#b)"/><path d="m111.973 200h-23.9463c-2.5682 0-4.7263-1.93-5.0122-4.482l-2.6635-23.777h39.298l-2.663 23.777c-.286 2.552-2.444 4.482-5.013 4.482z" fill="url(#d)"/><path d="m116.986 195.518.431-3.854h-34.8342l.4317 3.854c.2859 2.552 2.444 4.482 5.0122 4.482h23.9463c2.569 0 4.727-1.93 5.013-4.482z" fill="url(#f)"/><path d="m117.417 191.664.934-8.337h-36.702l.9337 8.337z" fill="url(#g)"/><path d="m118.351 183.327.934-8.336h-38.5701l.9341 8.336z" fill="url(#h)"/><path d="m110.448 200h-20.8963l-2.0062-28.259h24.9095z" fill="url(#i)"/><path d="m103.3 200h-6.6l-.6337-28.259h7.8677z" fill="url(#j)"/><path d="m80.351 171.741.3071 2.741 25.5189 25.518h5.796c2.569 0 4.727-1.93 5.013-4.482l2.663-23.777z" fill="url(#k)"/><path d="m117.661 174.816h-35.3218c-2.4208 0-4.3831-1.962-4.3831-4.383s1.9623-4.383 4.3831-4.383h35.3218c2.421 0 4.383 1.962 4.383 4.383s-1.962 4.383-4.383 4.383z" fill="url(#l)"/><path d="m113.827 161.795h-27.6545l-3.2305-14.014h34.115zm-25.6333-2.389h23.6123l2.426-9.235h-28.4646z" fill="url(#m)"/><path d="m110.836 12.1367c-7.203.82-14.4697.82-21.6721 0-19.5043-2.22039-58.5133-.9286-58.5133 44.9365 0 49.6948 37.789 60.6198 51.687 90.2008 1.8604 3.96 5.864 6.469 10.2396 6.469h7.4228 7.423c4.375 0 8.379-2.509 10.24-6.469 13.898-29.581 51.687-40.506 51.687-90.2008-.001-45.8651-39.01-47.15729-58.514-44.9365z" fill="url(#n)"/><path d="m108.129 6.54471c-5.389.85019-10.8694.85019-16.2584 0-14.6329-2.30824-43.8984-.9651-43.8984 46.71099 0 51.1093 27.7521 62.7683 38.4392 92.7913 1.6341 4.59 5.9266 7.695 10.7992 7.695h2.7894 2.789c4.873 0 9.166-3.105 10.8-7.695 10.687-30.023 38.439-41.682 38.439-92.7913 0-47.67609-29.266-49.01923-43.899-46.71099z" fill="url(#o)"/><path d="m105.063 3.53937c-3.325.85961-6.8003.85961-10.1257 0-9.1134-2.3553-27.3404-.9851-27.3404 47.66473 0 53.3769 18.1051 64.5859 24.3909 96.8749.6408 3.292 3.5357 5.664 6.8902 5.664h1.122 1.122c3.354 0 6.249-2.372 6.891-5.664 6.285-32.289 24.391-43.498 24.391-96.8749 0-48.64983-18.228-50.02042-27.341-47.66473z" fill="url(#p)"/><path d="m86.3455 40.3494c0 60.8086 8.0965 72.1286 10.5039 110.4266.1047 1.666 1.4812 2.966 3.1506 2.966 1.669 0 3.046-1.3 3.151-2.966 2.407-38.298 10.504-49.618 10.504-110.4266 0-53.7992-27.3095-53.7992-27.3095 0z" fill="url(#q)"/><path d="m100 143.619c-6.8981 0-13.2494.857-18.3251 2.294.2262.449.4474.902.6623 1.36 1.8604 3.96 5.8639 6.469 10.2396 6.469h4.6337 1.6671 1.1224 1.122 1.667 4.634c4.375 0 8.379-2.509 10.24-6.469.215-.458.436-.911.662-1.36-5.076-1.437-11.427-2.294-18.325-2.294z" fill="url(#r)"/></g></svg>

<svg width="200" height="200" viewBox="0 0 200 200" fill="none" xmlns="http://www.w3.org/2000/svg">
<g clip-path="url(#clip0)">
<path d="M118.612 171.628H81.3878V165.71C81.3878 162.233 84.2161 159.405 87.6921 159.405H112.307C115.784 159.405 118.612 162.233 118.612 165.71V171.628ZM83.7776 169.238H116.222V165.71C116.222 163.551 114.466 161.795 112.307 161.795H87.6921C85.5337 161.795 83.7776 163.551 83.7776 165.71V169.238Z" fill="url(#paint0_linear)"/>
<path d="M111.973 200H88.0267C85.4585 200 83.3004 198.07 83.0145 195.518L80.351 171.741H119.649L116.986 195.518C116.7 198.07 114.542 200 111.973 200Z" fill="url(#paint1_linear)"/>
<path d="M116.986 195.518L117.417 191.664H82.5828L83.0145 195.518C83.3004 198.07 85.4585 200 88.0267 200H111.973C114.542 200 116.7 198.07 116.986 195.518Z" fill="url(#paint2_linear)"/>
<path d="M117.417 191.664L118.351 183.327H81.649L82.5827 191.664H117.417Z" fill="url(#paint3_linear)"/>
<path d="M118.351 183.327L119.285 174.991H80.7149L81.649 183.327H118.351Z" fill="url(#paint4_linear)"/>
<path d="M110.448 200H89.5517L87.5455 171.741H112.455L110.448 200Z" fill="url(#paint5_linear)"/>
<path d="M103.3 200H96.7L96.0663 171.741H103.934L103.3 200Z" fill="url(#paint6_linear)"/>
<path d="M80.351 171.741L80.6581 174.482L106.177 200H111.973C114.542 200 116.7 198.07 116.986 195.518L119.649 171.741H80.351Z" fill="url(#paint7_linear)"/>
<path d="M117.661 174.816H82.3392C79.9184 174.816 77.9561 172.854 77.9561 170.433C77.9561 168.012 79.9184 166.05 82.3392 166.05H117.661C120.082 166.05 122.044 168.012 122.044 170.433C122.044 172.854 120.082 174.816 117.661 174.816Z" fill="url(#paint8_linear)"/>
<path d="M113.827 161.795H86.1725L82.942 147.781H117.057L113.827 161.795ZM88.1937 159.406H111.806L114.232 150.171H85.7674L88.1937 159.406Z" fill="url(#paint9_linear)"/>
<path d="M110.836 12.1367C103.633 12.9567 96.3663 12.9567 89.1639 12.1367C69.6596 9.91631 30.6506 11.2081 30.6506 57.0732C30.6506 106.768 68.4396 117.693 82.3376 147.274C84.198 151.234 88.2016 153.743 92.5772 153.743H100H107.423C111.798 153.743 115.802 151.234 117.663 147.274C131.561 117.693 169.35 106.768 169.35 57.0732C169.349 11.2081 130.34 9.91591 110.836 12.1367V12.1367Z" fill="url(#paint10_linear)"/>
<path d="M108.129 6.54471C102.74 7.3949 97.2596 7.3949 91.8706 6.54471C77.2377 4.23647 47.9722 5.57961 47.9722 53.2557C47.9722 104.365 75.7243 116.024 86.4114 146.047C88.0455 150.637 92.338 153.742 97.2106 153.742H100H102.789C107.662 153.742 111.955 150.637 113.589 146.047C124.276 116.024 152.028 104.365 152.028 53.2557C152.028 5.57961 122.762 4.23647 108.129 6.54471V6.54471Z" fill="url(#paint11_linear)"/>
<path d="M105.063 3.53937C101.738 4.39898 98.2627 4.39898 94.9373 3.53937C85.8239 1.18407 67.5969 2.55427 67.5969 51.2041C67.5969 104.581 85.702 115.79 91.9878 148.079C92.6286 151.371 95.5235 153.743 98.878 153.743H100H101.122C104.476 153.743 107.371 151.371 108.013 148.079C114.298 115.79 132.404 104.581 132.404 51.2041C132.404 2.55427 114.176 1.18368 105.063 3.53937V3.53937Z" fill="url(#paint12_linear)"/>
<path d="M86.3455 40.3494C86.3455 101.158 94.442 112.478 96.8494 150.776C96.9541 152.442 98.3306 153.742 100 153.742C101.669 153.742 103.046 152.442 103.151 150.776C105.558 112.478 113.655 101.158 113.655 40.3494C113.655 -13.4498 86.3455 -13.4498 86.3455 40.3494V40.3494Z" fill="url(#paint13_linear)"/>
<path d="M100 143.619C93.1019 143.619 86.7506 144.476 81.6749 145.913C81.9011 146.362 82.1223 146.815 82.3372 147.273C84.1976 151.233 88.2011 153.742 92.5768 153.742H97.2105H98.8776H100H101.122H102.789H107.423C111.798 153.742 115.802 151.233 117.663 147.273C117.878 146.815 118.099 146.362 118.325 145.913C113.249 144.476 106.898 143.619 100 143.619Z" fill="url(#paint14_linear)"/>
</g>
<defs>
<linearGradient id="paint0_linear" x1="81.3878" y1="165.517" x2="118.612" y2="165.517" gradientUnits="userSpaceOnUse">
<stop stop-color="#4F4A72"/>
<stop offset="1" stop-color="#3B395F"/>
</linearGradient>
<linearGradient id="paint1_linear" x1="99.7396" y1="169.937" x2="103.233" y2="199.978" gradientUnits="userSpaceOnUse">
<stop stop-color="#A34A9E"/>
<stop offset="0.1962" stop-color="#A04D90"/>
<stop offset="0.5665" stop-color="#97566B"/>
<stop offset="1" stop-color="#8C6239"/>
</linearGradient>
<linearGradient id="paint2_linear" x1="100.216" y1="194.984" x2="101.073" y2="208.191" gradientUnits="userSpaceOnUse">
<stop stop-color="#3B395F" stop-opacity="0"/>
<stop offset="1" stop-color="#3B395F"/>
</linearGradient>
<linearGradient id="paint3_linear" x1="100.223" y1="186.762" x2="101.115" y2="200.488" gradientUnits="userSpaceOnUse">
<stop stop-color="#3B395F" stop-opacity="0"/>
<stop offset="1" stop-color="#3B395F"/>
</linearGradient>
<linearGradient id="paint4_linear" x1="100.222" y1="178.418" x2="101.124" y2="192.3" gradientUnits="userSpaceOnUse">
<stop stop-color="#3B395F" stop-opacity="0"/>
<stop offset="1" stop-color="#3B395F"/>
</linearGradient>
<linearGradient id="paint5_linear" x1="97.2655" y1="174.041" x2="116.002" y2="233.336" gradientUnits="userSpaceOnUse">
<stop stop-color="#3B395F" stop-opacity="0"/>
<stop offset="1" stop-color="#3B395F"/>
</linearGradient>
<linearGradient id="paint6_linear" x1="97.1996" y1="176.006" x2="113.323" y2="227.029" gradientUnits="userSpaceOnUse">
<stop stop-color="#3B395F" stop-opacity="0"/>
<stop offset="1" stop-color="#3B395F"/>
</linearGradient>
<linearGradient id="paint7_linear" x1="102.36" y1="183.118" x2="94.6549" y2="148.171" gradientUnits="userSpaceOnUse">
<stop stop-color="#3B395F" stop-opacity="0"/>
<stop offset="1" stop-color="#3B395F"/>
</linearGradient>
<linearGradient id="paint8_linear" x1="99.2792" y1="164.233" x2="100.692" y2="176.385" gradientUnits="userSpaceOnUse">
<stop stop-color="#A34A9E"/>
<stop offset="0.1962" stop-color="#A04D90"/>
<stop offset="0.5665" stop-color="#97566B"/>
<stop offset="1" stop-color="#8C6239"/>
</linearGradient>
<linearGradient id="paint9_linear" x1="82.9423" y1="154.788" x2="117.058" y2="154.788" gradientUnits="userSpaceOnUse">
<stop stop-color="#4F4A72"/>
<stop offset="1" stop-color="#3B395F"/>
</linearGradient>
<linearGradient id="paint10_linear" x1="30.6506" y1="82.6253" x2="169.349" y2="82.6253" gradientUnits="userSpaceOnUse">
<stop stop-color="#3FA9F5"/>
<stop offset="1" stop-color="#666AD6"/>
</linearGradient>
<linearGradient id="paint11_linear" x1="47.9722" y1="79.8173" x2="152.028" y2="79.8173" gradientUnits="userSpaceOnUse">
<stop stop-color="#C4F8B6"/>
<stop offset="1" stop-color="#3B8EAC"/>
</linearGradient>
<linearGradient id="paint12_linear" x1="67.5969" y1="78.3076" x2="132.404" y2="78.3076" gradientUnits="userSpaceOnUse">
<stop stop-color="#FFE548"/>
<stop offset="0.1758" stop-color="#FFDE50"/>
<stop offset="0.4446" stop-color="#FFCA65"/>
<stop offset="0.7709" stop-color="#FFAA87"/>
<stop offset="1" stop-color="#FF90A4"/>
</linearGradient>
<linearGradient id="paint13_linear" x1="86.3455" y1="76.8714" x2="113.655" y2="76.8714" gradientUnits="userSpaceOnUse">
<stop stop-color="#FF4974"/>
<stop offset="0.2231" stop-color="#FB3F6C"/>
<stop offset="0.6075" stop-color="#F12357"/>
<stop offset="1" stop-color="#E4003D"/>
</linearGradient>
<linearGradient id="paint14_linear" x1="98.8709" y1="141.892" x2="102.853" y2="156.075" gradientUnits="userSpaceOnUse">
<stop stop-color="#4F4A72"/>
<stop offset="1" stop-color="#3B395F"/>
</linearGradient>
<clipPath id="clip0">
<rect width="200" height="200" fill="white"/>
</clipPath>
</defs>
</svg>
